src/assets/duotone/CloseSquare.svg

<svg width="24" height="24" viewBox="0 0 24 24"  xmlns="http://www.w3.org/2000/svg">
<path opacity="0.4" d="M16.19 2H7.81C4.17 2 2 4.17 2 7.81V16.18C2 19.83 4.17 22 7.81 22H16.18C19.82 22 21.99 19.83 21.99 16.19V7.81C22 4.17 19.83 2 16.19 2Z" />
<path d="M13.0599 12.0004L15.3599 9.70035C15.6499 9.41035 15.6499 8.93035 15.3599 8.64035C15.0699 8.35035 14.5899 8.35035 14.2999 8.64035L11.9999 10.9404L9.69986 8.64035C9.40986 8.35035 8.92986 8.35035 8.63986 8.64035C8.34986 8.93035 8.34986 9.41035 8.63986 9.70035L10.9399 12.0004L8.63986 14.3004C8.34986 14.5904 8.34986 15.0704 8.63986 15.3604C8.78986 15.5104 8.97986 15.5804 9.16986 15.5804C9.35986 15.5804 9.54986 15.5104 9.69986 15.3604L11.9999 13.0604L14.2999 15.3604C14.4499 15.5104 14.6399 15.5804 14.8299 15.5804C15.0199 15.5804 15.2099 15.5104 15.3599 15.3604C15.6499 15.0704 15.6499 14.5904 15.3599 14.3004L13.0599 12.0004Z" />
</svg>

<?xml version="1.0" encoding="UTF-8"?>
<svg width="24" height="24" viewBox="0 0 24 24" xmlns="http://www.w3.org/2000/svg">
 <path d="M16.19 2H7.81C4.17 2 2 4.17 2 7.81V16.18C2 19.83 4.17 22 7.81 22H16.18C19.82 22 21.99 19.83 21.99 16.19V7.81C22 4.17 19.83 2 16.19 2Z" opacity=".4"/>
 <path d="m13.06 12 2.3-2.3c0.29-0.29 0.29-0.77 0-1.06s-0.77-0.29-1.06 0l-2.3 2.3-2.3-2.3c-0.29-0.29-0.77-0.29-1.06 0s-0.29 0.77 0 1.06l2.3 2.3-2.3 2.3c-0.29 0.29-0.29 0.77 0 1.06 0.15 0.15 0.34 0.22 0.53 0.22s0.38-0.07 0.53-0.22l2.3-2.3 2.3 2.3c0.15 0.15 0.34 0.22 0.53 0.22s0.38-0.07 0.53-0.22c0.29-0.29 0.29-0.77 0-1.06l-2.3-2.3z"/>
</svg>
